X: 2
T: Bonaparte Crossing The Rhine
R: hornpipe
M: 4/4
L: 1/8
K: Ador
D>D DE DCCD | F>G AF G2 (3ABc | d>c AG AGED | C>C CD C2 (3AGE |D>D DE DCCD | F>G AF G2 (3ABc | d>c AG AGEC | D4 D2 || d>c AG F>G AB | c>d cA c2 (3ABc | d>c AG AGED | C>C CD C2 (3AGE |D>D DE DCCD | F>G AF G2 (3ABc | d>c AG AGEC | D4 D2 ||


Tune 7	Setting 12364

